; generated by PrusaSlicer 2.5.1+win64 on 2023-04-29 at 18:00:13 UTC

; 

; external perimeters extrusion width = 3.38mm
; perimeters extrusion width = 3.38mm
; infill extrusion width = 3.38mm
; solid infill extrusion width = 3.38mm
; top infill extrusion width = 3.00mm
; first layer extrusion width = 3.15mm

M107
;TYPE:Custom
G28 ; home all axes
G1 Z5 F5000 ; lift nozzle
G21 ; set units to millimeters
G90 ; use absolute coordinates
M82 ; use absolute distances for extrusion
G92 E0
; Filament gcode
M107
;LAYER_CHANGE
;Z:1
;HEIGHT:1
G1 Z1 F3000
G1 E-2 F2400
G92 E0
G1 X93.665 Y72.173 F3000
G1 E2 F2400
;TYPE:Skirt/Brim
;WIDTH:3.15
G1 F900
G1 X95.66 Y69.795 E3.28868
G1 X97.256 Y68.456 E4.15403
G1 X99.944 Y66.904 E5.4427
G1 X101.902 Y66.192 E6.30804
G1 X104.958 Y65.653 E7.59673
G1 X145.042 Y65.653 E24.24248
G1 X148.098 Y66.192 E25.53118
G1 X150.056 Y66.904 E26.39652
G1 X152.744 Y68.456 E27.6852
G1 X154.34 Y69.795 E28.55054
G1 X156.335 Y72.173 E29.83923
G1 X157.376 Y73.977 E30.70457
G1 X158.438 Y76.893 E31.99326
G1 X158.8 Y78.946 E32.85862
G1 X158.935 Y80.497 E33.50541
G1 X158.905 Y111.235 E46.27005
G1 X158.564 Y115.35 E47.98472
G1 X158.321 Y116.805 E48.59755
G1 X157.409 Y120.408 E50.14073
G1 X156.828 Y122.204 E50.92459
G1 X155.17 Y125.985 E52.63924
G1 X154.467 Y127.283 E53.25208
G1 X152.209 Y130.74 E54.96674
G1 X151.302 Y131.904 E55.57958
G1 X148.506 Y134.942 E57.29424
G1 X147.42 Y135.941 E57.90708
G1 X144.162 Y138.478 E59.62173
G1 X142.926 Y139.285 E60.23458
G1 X139.295 Y141.25 E61.94923
G1 X137.944 Y141.843 E62.56207
G1 X134.429 Y143.049 E64.10526
G1 X132.608 Y143.546 E64.88911
G1 X128.535 Y144.225 E66.60376
G1 X127.064 Y144.347 E67.21661
G1 X122.936 Y144.347 E68.93126
G1 X121.465 Y144.225 E69.5441
G1 X117.392 Y143.546 E71.25877
G1 X115.962 Y143.183 E71.8716
G1 X112.056 Y141.843 E73.58625
G1 X110.705 Y141.25 E74.1991
G1 X107.074 Y139.285 E75.91375
G1 X105.838 Y138.478 E76.52659
G1 X102.58 Y135.941 E78.24125
G1 X101.494 Y134.942 E78.85409
G1 X98.698 Y131.904 E80.56874
G1 X97.791 Y130.74 E81.18159
G1 X95.533 Y127.283 E82.89624
G1 X94.83 Y125.985 E83.50908
G1 X93.172 Y122.204 E85.22373
G1 X92.693 Y120.808 E85.83658
G1 X91.679 Y116.805 E87.55124
G1 X91.436 Y115.35 E88.16407
G1 X91.065 Y110.497 E90.18519
G1 X91.065 Y80.497 E102.6434
G1 X91.2 Y78.946 E103.29021
G1 X91.562 Y76.893 E104.15557
G1 X92.624 Y73.977 E105.44424
G1 X93.44 Y72.562 E106.12272
G1 E104.12272 F2400
G92 E0
G1 X112.537 Y91.012 F3000
G1 E2 F2400
;TYPE:Perimeter
;WIDTH:3.15
G1 F900
G1 X112.977 Y91.151 E2.19155
G1 X113.876 Y91.309 E2.57064
G1 X114.697 Y91.355 E2.91185
G1 X116.653 Y91.347 E3.72444
G1 X117.302 Y91.287 E3.99479
G1 X117.883 Y91.183 E4.2402
G1 X118.403 Y91.048 E4.46326
G1 X119 Y90.842 E4.72557
G1 X119.487 Y90.628 E4.94636
G1 X120.935 Y89.931 E5.61356
G1 X121.381 Y89.697 E5.82284
G1 X121.943 Y89.343 E6.09848
G1 X122.394 Y89.002 E6.33345
G1 X122.912 Y88.536 E6.6229
G1 X123.488 Y87.895 E6.98076
G1 X124.49 Y86.639 E7.64795
G1 X125 Y85.898 E8.0216
G1 X125.109 Y86.085 E8.11165
G1 X125.51 Y86.639 E8.39558
G1 X126.512 Y87.895 E9.06277
G1 X127.088 Y88.536 E9.42064
G1 X127.606 Y89.002 E9.71008
G1 X128.057 Y89.343 E9.94505
G1 X128.619 Y89.697 E10.22069
G1 X129.065 Y89.931 E10.42998
G1 X130.853 Y90.782 E11.25227
G1 X131.358 Y90.973 E11.47636
G1 X131.849 Y91.119 E11.68917
G1 X132.399 Y91.24 E11.92309
G1 X133.014 Y91.323 E12.18063
G1 X133.697 Y91.355 E12.46448
G1 X135.703 Y91.344 E13.29778
G1 X136.564 Y91.246 E13.6575
G1 X137.498 Y91.019 E14.05676
G1 X137.988 Y90.847 E14.27229
G1 X138.487 Y90.628 E14.49872
G1 X139.935 Y89.931 E15.16591
G1 X140.465 Y89.649 E15.41529
G1 X140.994 Y89.307 E15.67692
G1 X141.514 Y88.902 E15.95069
G1 X142.016 Y88.432 E16.23628
G1 X142.554 Y87.812 E16.577
G1 X142.554 Y110.189 E25.86948
G1 X142.29 Y113.382 E27.20003
G1 X141.579 Y116.189 E28.40226
G1 X140.416 Y118.84 E29.60448
G1 X138.833 Y121.263 E30.8067
G1 X136.872 Y123.393 E32.00893
G1 X134.587 Y125.172 E33.21115
G1 X132.041 Y126.549 E34.41337
G1 X129.303 Y127.489 E35.61559
G1 X126.447 Y127.966 E36.81783
G1 X123.553 Y127.966 E38.02004
G1 X120.697 Y127.489 E39.22227
G1 X117.959 Y126.549 E40.42449
G1 X115.413 Y125.172 E41.62672
G1 X113.128 Y123.393 E42.82894
G1 X111.167 Y121.263 E44.03117
G1 X109.584 Y118.84 E45.23339
G1 X108.421 Y116.189 E46.43561
G1 X107.71 Y113.382 E47.63784
G1 X107.446 Y110.189 E48.96839
G1 X107.446 Y87.812 E58.26086
G1 X107.984 Y88.432 E58.60157
G1 X108.486 Y88.902 E58.88717
G1 X109.006 Y89.307 E59.16094
G1 X109.535 Y89.649 E59.42257
G1 X110.065 Y89.931 E59.67196
G1 X111.513 Y90.628 E60.33915
G1 X112.108 Y90.877 E60.60712
G1 E58.60712 F2400
G92 E0
G1 X113.554 Y88.26 F3000
G1 E2 F2400
G1 F900
G1 X113.94 Y88.354 E2.16516
G1 X114.697 Y88.42 E2.48043
G1 X116.513 Y88.415 E3.23486
G1 X117.082 Y88.35 E3.47237
G1 X117.706 Y88.19 E3.74023
G1 X118.214 Y87.984 E3.96766
G1 X119.661 Y87.287 E4.63485
G1 X119.929 Y87.146 E4.76042
G1 X120.396 Y86.839 E4.99261
G1 X120.848 Y86.449 E5.24027
G1 X121.193 Y86.065 E5.45498
G1 X122.195 Y84.809 E6.12218
G1 X122.67 Y84.073 E6.48603
G1 X122.881 Y83.593 E6.70352
G1 X123.045 Y83.043 E6.9419
G1 X123.398 Y81.498 E7.60003
G1 X123.666 Y80.011 E8.22736
G1 X123.912 Y79.584 E8.43216
G1 X124.29 Y79.267 E8.63696
G1 X124.753 Y79.099 E8.84176
G1 X125.247 Y79.099 E9.04656
G1 X125.71 Y79.267 E9.25136
G1 X126.088 Y79.584 E9.45616
G1 X126.334 Y80.011 E9.66096
G1 X126.602 Y81.498 E10.28829
G1 X126.955 Y83.043 E10.94642
G1 X127.119 Y83.593 E11.1848
G1 X127.33 Y84.073 E11.40229
G1 X127.805 Y84.809 E11.76614
G1 X128.807 Y86.065 E12.43333
G1 X129.313 Y86.6 E12.73928
G1 X129.855 Y87.015 E13.02282
G1 X130.339 Y87.287 E13.25317
G1 X132.079 Y88.112 E14.05276
G1 X132.588 Y88.278 E14.27541
G1 X133.098 Y88.379 E14.49108
G1 X133.697 Y88.42 E14.74042
G1 X135.543 Y88.413 E15.50727
G1 X136.06 Y88.354 E15.7231
G1 X136.62 Y88.218 E15.96266
G1 X137.214 Y87.984 E16.22766
G1 X138.661 Y87.287 E16.89485
G1 X138.979 Y87.117 E17.04448
G1 X139.609 Y86.669 E17.36541
G1 X140.193 Y86.065 E17.71449
G1 X141.195 Y84.809 E18.38168
G1 X141.47 Y84.423 E18.57827
G1 X141.708 Y83.997 E18.7812
G1 X141.903 Y83.534 E18.98946
G1 X142.045 Y83.043 E19.20188
G1 X142.398 Y81.498 E19.86
G1 X142.666 Y80.011 E20.48734
G1 X142.912 Y79.584 E20.69213
G1 X143.29 Y79.267 E20.89693
G1 X143.753 Y79.099 E21.10173
G1 X144.247 Y79.099 E21.30653
G1 X144.71 Y79.267 E21.51133
G1 X145.088 Y79.584 E21.71613
G1 X145.334 Y80.011 E21.92093
G1 X145.49 Y81.022 E22.34553
G1 X145.49 Y110.311 E34.50829
G1 X145.195 Y113.867 E35.99026
G1 X144.365 Y117.145 E37.39451
G1 X143.006 Y120.242 E38.79875
G1 X141.157 Y123.073 E40.20299
G1 X138.867 Y125.56 E41.60723
G1 X136.198 Y127.637 E43.01147
G1 X133.224 Y129.247 E44.41572
G1 X130.026 Y130.345 E45.81995
G1 X126.691 Y130.901 E47.2242
G1 X123.309 Y130.901 E48.62844
G1 X119.974 Y130.345 E50.03268
G1 X116.776 Y129.247 E51.43692
G1 X113.802 Y127.637 E52.84117
G1 X111.133 Y125.56 E54.24541
G1 X108.843 Y123.073 E55.64965
G1 X106.994 Y120.242 E57.05389
G1 X105.635 Y117.145 E58.45812
G1 X104.805 Y113.867 E59.86237
G1 X104.51 Y110.311 E61.34435
G1 X104.51 Y80.892 E73.56122
G1 X104.666 Y80.011 E73.93243
G1 X104.912 Y79.584 E74.13722
G1 X105.29 Y79.267 E74.34202
G1 X105.753 Y79.099 E74.54682
G1 X106.247 Y79.099 E74.75162
G1 X106.71 Y79.267 E74.95642
G1 X107.088 Y79.584 E75.16122
G1 X107.334 Y80.011 E75.36602
G1 X107.602 Y81.498 E75.99335
G1 X107.955 Y83.043 E76.65148
G1 X108.097 Y83.534 E76.86389
G1 X108.292 Y83.997 E77.07216
G1 X108.53 Y84.423 E77.27508
G1 X108.805 Y84.809 E77.47167
G1 X109.807 Y86.065 E78.13887
G1 X110.09 Y86.387 E78.31699
G1 X110.703 Y86.912 E78.65225
G1 X111.339 Y87.287 E78.95859
G1 X112.786 Y87.984 E79.62578
G1 X113.128 Y88.119 E79.7783
G1 E77.7783 F2400
G92 E0
G1 X114.258 Y85.417 F3000
G1 E2 F2400
;TYPE:External perimeter
G1 F900
G1 X114.697 Y85.484 E2.18442
G1 X116.503 Y85.471 E2.93455
G1 X116.94 Y85.339 E3.12414
G1 X118.388 Y84.642 E3.79133
G1 X118.549 Y84.551 E3.86811
G1 X118.898 Y84.235 E4.06397
G1 X119.9 Y82.979 E4.73116
G1 X120.059 Y82.733 E4.85245
G1 X120.183 Y82.39 E5.00411
G1 X120.536 Y80.845 E5.66224
G1 X120.865 Y78.992 E6.44375
G1 X121.629 Y77.668 E7.07843
G1 X122.8 Y76.686 E7.71311
G1 X124.236 Y76.163 E8.34779
G1 X125.764 Y76.163 E8.98248
G1 X127.2 Y76.686 E9.61716
G1 X128.371 Y77.668 E10.25184
G1 X129.135 Y78.992 E10.88652
G1 X129.449 Y80.773 E11.63766
G1 X129.817 Y82.39 E12.32616
G1 X129.871 Y82.573 E12.40562
G1 X130.1 Y82.979 E12.59883
G1 X131.102 Y84.235 E13.26602
G1 X131.27 Y84.413 E13.368
G1 X131.612 Y84.642 E13.53888
G1 X133.06 Y85.339 E14.20607
G1 X133.277 Y85.423 E14.30261
G1 X133.697 Y85.484 E14.47889
G1 X135.303 Y85.484 E15.14608
G1 X135.555 Y85.463 E15.25117
G1 X135.94 Y85.339 E15.41896
G1 X137.388 Y84.642 E16.08614
G1 X137.599 Y84.517 E16.18826
G1 X137.898 Y84.235 E16.359
G1 X138.9 Y82.979 E17.02619
G1 X139.071 Y82.708 E17.15917
G1 X139.183 Y82.39 E17.29916
G1 X139.536 Y80.845 E17.95729
G1 X139.865 Y78.992 E18.7388
G1 X140.629 Y77.668 E19.37348
G1 X141.8 Y76.686 E20.00816
G1 X143.236 Y76.163 E20.64285
G1 X144.764 Y76.163 E21.27753
G1 X146.2 Y76.686 E21.91221
G1 X147.371 Y77.668 E22.5469
G1 X148.135 Y78.992 E23.18158
G1 X148.425 Y80.635 E23.87437
G1 X148.425 Y110.432 E36.24831
G1 X148.1 Y114.352 E37.88171
G1 X147.151 Y118.101 E39.48798
G1 X145.597 Y121.644 E41.09423
G1 X143.481 Y124.882 E42.70049
G1 X140.862 Y127.727 E44.30675
G1 X137.809 Y130.103 E45.91301
G1 X134.408 Y131.944 E47.51927
G1 X130.749 Y133.2 E49.12552
G1 X126.934 Y133.837 E50.73179
G1 X123.066 Y133.837 E52.33804
G1 X119.251 Y133.2 E53.94431
G1 X115.592 Y131.944 E55.55056
G1 X112.191 Y130.103 E57.15682
G1 X109.138 Y127.727 E58.76308
G1 X106.519 Y124.882 E60.36934
G1 X104.403 Y121.644 E61.9756
G1 X102.849 Y118.101 E63.58185
G1 X101.9 Y114.352 E65.18812
G1 X101.575 Y110.432 E66.82152
G1 X101.575 Y80.635 E79.19546
G1 X101.865 Y78.992 E79.88825
G1 X102.629 Y77.668 E80.52293
G1 X103.8 Y76.686 E81.15761
G1 X105.236 Y76.163 E81.7923
G1 X106.764 Y76.163 E82.42698
G1 X108.2 Y76.686 E83.06166
G1 X109.371 Y77.668 E83.69635
G1 X110.135 Y78.992 E84.33103
G1 X110.464 Y80.845 E85.11254
G1 X110.817 Y82.39 E85.77066
G1 X110.864 Y82.554 E85.84147
G1 X111.1 Y82.979 E86.04323
G1 X112.102 Y84.235 E86.71043
G1 X112.296 Y84.436 E86.82678
G1 X112.612 Y84.642 E86.98336
G1 X113.846 Y85.236 E87.55201
G1 X114.375 Y85.845 F3000
G1 E85.55201 F2400
G92 E0
G1 X137.387 Y91.963 F3000
G1 E2 F2400
;TYPE:Solid infill
;WIDTH:3.30604
G1 F900
G1 X140.353 Y94.928 E3.83407
G1 X140.353 Y99.3 E5.74613
G1 X134.606 Y93.553 E9.30057
G1 X133.241 Y93.547 E9.89751
G1 X132.407 Y93.47 E10.2636
G1 X132.004 Y93.406 E10.44234
G1 X131.29 Y93.249 E10.76183
G1 X130.368 Y92.958 E11.18495
G1 X129.684 Y92.672 E11.50907
G1 X129.039 Y92.359 E11.82245
G1 X140.353 Y103.672 E18.81976
G1 X140.353 Y108.044 E20.73183
G1 X123.348 Y91.039 E31.24932
G1 X123.198 Y91.152 E31.33124
G1 X122.474 Y91.609 E31.70583
G1 X121.901 Y91.909 E31.98859
G1 X120.514 Y92.577 E32.662
G1 X140.175 Y112.239 E44.82248
G1 X140.111 Y113.019 E45.16481
G1 X139.49 Y115.471 E46.27138
G1 X139.351 Y115.787 E46.42188
G1 X117.082 Y93.517 E60.19584
G1 X116.759 Y93.547 E60.33747
G1 X114.689 Y93.557 E61.24303
G1 X114.176 Y93.543 E61.46718
G1 X113.63 Y93.497 E61.70705
G1 X113.057 Y93.415 E61.95993
G1 X112.49 Y93.298 E62.21313
G1 X137.884 Y118.691 E77.91898
G1 X137.089 Y119.907 E78.55413
G1 X135.957 Y121.136 E79.28516
G1 X109.647 Y94.826 E95.55795
G1 X109.647 Y99.198 E97.47001
G1 X133.6 Y123.151 E112.28453
G1 X133.379 Y123.322 E112.40672
G1 X131.154 Y124.526 E113.51328
G1 X130.744 Y124.667 E113.70276
G1 X109.647 Y103.57 E126.75117
G1 X109.647 Y107.942 E128.66323
G1 X127.297 Y125.592 E139.57975
G1 X126.265 Y125.764 E140.0374
G1 X123.735 Y125.764 E141.14395
G1 X122.97 Y125.637 E141.4832
G1 X109.848 Y112.514 E149.59936
G1 X109.889 Y113.019 E149.82062
G1 X110.51 Y115.471 E150.92719
G1 X111.527 Y117.788 E152.03375
G1 X112.911 Y119.907 E153.14031
G1 X113.408 Y120.447 E153.46151
G1 X118.904 Y125.943 E156.86075
;LAYER_CHANGE
;Z:2.5
;HEIGHT:1.5
G1 Z2.5 F3000
G1 E154.86075 F2400
G92 E0
G1 X125 Y86.549 F3000
G1 E2 F2400
;TYPE:Perimeter
;WIDTH:3.38
G1 F1200
G1 X125.221 Y86.854 E2.2441
G1 X126.238 Y88.129 E3.30263
G1 X126.838 Y88.797 E3.88523
G1 X127.377 Y89.283 E4.35645
G1 X127.848 Y89.638 E4.73899
G1 X128.433 Y90.007 E5.18774
G1 X128.898 Y90.251 E5.52846
G1 X130.721 Y91.118 E6.83862
G1 X131.246 Y91.316 E7.203
G1 X131.758 Y91.469 E7.54969
G1 X132.332 Y91.595 E7.93081
G1 X132.972 Y91.682 E8.35044
G1 X133.684 Y91.716 E8.81298
G1 X135.316 Y91.716 E9.8715
G1 X136.17 Y91.668 E10.427
G1 X137.107 Y91.503 E11.04416
G1 X137.602 Y91.366 E11.37773
G1 X138.112 Y91.186 E11.72861
G1 X138.633 Y90.958 E12.09724
G1 X140.102 Y90.251 E13.15575
G1 X140.654 Y89.956 E13.56174
G1 X141.206 Y89.6 E13.98769
G1 X141.748 Y89.178 E14.43339
G1 X142.194 Y88.76 E14.83031
G1 X142.194 Y110.174 E28.72704
G1 X141.933 Y113.323 E30.77725
G1 X141.237 Y116.071 E32.61721
G1 X140.098 Y118.668 E34.45716
G1 X138.547 Y121.041 E36.29711
G1 X136.627 Y123.127 E38.13707
G1 X134.389 Y124.869 E39.97702
G1 X131.896 Y126.218 E41.81698
G1 X129.214 Y127.139 E43.65693
G1 X126.418 Y127.606 E45.49689
G1 X123.582 Y127.606 E47.33684
G1 X120.786 Y127.139 E49.1768
G1 X118.104 Y126.218 E51.01675
G1 X115.611 Y124.869 E52.85671
G1 X113.373 Y123.127 E54.69666
G1 X111.453 Y121.041 E56.53662
G1 X109.902 Y118.668 E58.37657
G1 X108.763 Y116.071 E60.21652
G1 X108.067 Y113.323 E62.05648
G1 X107.806 Y110.174 E64.10669
G1 X107.806 Y88.76 E78.00342
G1 X108.252 Y89.178 E78.40034
G1 X108.794 Y89.6 E78.84604
G1 X109.346 Y89.956 E79.27199
G1 X109.898 Y90.251 E79.67799
G1 X111.367 Y90.958 E80.7365
G1 X111.888 Y91.186 E81.10513
G1 X112.398 Y91.366 E81.45601
G1 X112.893 Y91.503 E81.78957
G1 X113.83 Y91.668 E82.40673
G1 X114.684 Y91.716 E82.96224
G1 X116.316 Y91.716 E84.02075
G1 X116.681 Y91.707 E84.25773
G1 X117.357 Y91.644 E84.69826
G1 X117.963 Y91.536 E85.0981
G1 X118.505 Y91.395 E85.46151
G1 X119.127 Y91.18 E85.88852
G1 X119.633 Y90.958 E86.24683
G1 X121.102 Y90.251 E87.30534
G1 X121.567 Y90.007 E87.64606
G1 X122.152 Y89.638 E88.09481
G1 X122.623 Y89.283 E88.47734
G1 X123.162 Y88.797 E88.94857
G1 X123.762 Y88.129 E89.53117
G1 X124.733 Y86.912 E90.54177
G1 E88.54177 F2400
G92 E0
G1 X125.589 Y79.476 F3000
G1 E2 F2400
G1 F1200
G1 X125.903 Y79.739 E2.26564
G1 X126.108 Y80.094 E2.53128
G1 X126.37 Y81.55 E3.49124
G1 X126.726 Y83.108 E4.5285
G1 X126.897 Y83.681 E4.9166
G1 X127.116 Y84.181 E5.27068
G1 X127.611 Y84.947 E5.86304
G1 X128.812 Y86.439 E7.10558
G1 X129.312 Y86.915 E7.55363
G1 X129.721 Y87.212 E7.8816
G1 X130.225 Y87.495 E8.25661
G1 X131.694 Y88.203 E9.31511
G1 X132.04 Y88.353 E9.55966
G1 X132.529 Y88.509 E9.89265
G1 X133.06 Y88.615 E10.24405
G1 X133.684 Y88.657 E10.65034
G1 X135.566 Y88.651 E11.87111
G1 X136.104 Y88.589 E12.22248
G1 X136.688 Y88.447 E12.61249
G1 X137.306 Y88.203 E13.04391
G1 X138.775 Y87.495 E14.10242
G1 X139.107 Y87.319 E14.34602
G1 X139.763 Y86.852 E14.8685
G1 X140.372 Y86.223 E15.4368
G1 X141.389 Y84.947 E16.49532
G1 X141.675 Y84.546 E16.81538
G1 X141.923 Y84.102 E17.14575
G1 X142.112 Y83.615 E17.4844
;WIDTH:3.35116
G1 X142.173 Y83.357 E17.65485
;WIDTH:3.32341
G1 X142.233 Y83.099 E17.82375
;WIDTH:3.29567
G1 X142.332 Y82.575 E18.16022
;WIDTH:3.25441
G1 X142.43 Y82.051 E18.49202
;WIDTH:3.21314
G1 X142.528 Y81.527 E18.81916
;WIDTH:3.17188
G1 X142.562 Y81.306 E18.95435
;WIDTH:3.14913
G1 X142.631 Y80.781 E19.272
;WIDTH:3.10285
G1 X142.76 Y80.046 E19.71228
G1 X142.989 Y79.649 E19.98269
G1 X143.34 Y79.355 E20.2531
G1 X143.771 Y79.198 E20.5235
G1 X144.229 Y79.198 E20.79391
G1 X144.66 Y79.355 E21.06432
G1 X145.011 Y79.649 E21.33473
G1 X145.24 Y80.046 E21.60513
G1 X145.39 Y81.022 E22.18803
;WIDTH:3.13737
G1 X145.373 Y81.434 E22.43415
;WIDTH:3.17188
G1 X145.356 Y81.845 E22.68328
;WIDTH:3.21314
G1 X145.335 Y82.378 E23.01041
;WIDTH:3.25441
G1 X145.315 Y82.911 E23.34221
;WIDTH:3.29567
G1 X145.294 Y83.444 E23.67868
;WIDTH:3.32341
G1 X145.28 Y83.801 E23.90622
;WIDTH:3.35116
G1 X145.266 Y84.157 E24.13586
;WIDTH:3.38
G1 X145.252 Y84.871 E24.59925
G1 X145.252 Y110.301 E41.10156
G1 X144.96 Y113.828 E43.39829
G1 X144.139 Y117.068 E45.56714
